X: 26294
T: Memories Of Camp
R: hornpipe
M: 4/4
K: Dmajor
|:dedB AFDA|GFGB AFDF|GABG FGAF|EDEF E3 A|
dedB AFDA|GFGB AFDF|GABG FAEG|F2 D2 D3 A:|
|:dcde f2 ec|dedB AFDA|dcde fdgf|(3efe (3dcB A2 Ac|
dedB AFDA|GFGB AFDF|GABG FAEG|F2 D2 D3 A:|

